X:121
%%etbk:tnset id:43,pos:1,rep:3x,ant:
%%etbk:wsite http://www.thesession.org/tunes/display/1335
%%etbk:video src:ytube,cde:yI1hmBpvi0o,desc:
%%etbk:video src:ytube,cde:k4GoJeqSp2k,desc:second tune (1:12)
%%etbk:color #ffccbf
%%etbk:pldat 2016-09-17T15:49,2016-09-16T15:39,2016-09-13T15:43,2016-09-12T18:26,2016-08-05T17:19,2016-08-02T15:13,2016-07-31T16:36,2016-07-28T18:18,2016-07-26T16:03,2014-11-24T16:52,2014-11-24T16:42,2014-09-30T15:18,2014-05-06T18:11,2014-05-02T18:33,2014-02-05T16:56,2013-11-25T19:35,2013-11-20T17:41
T: Bunch Of Green Rushes, The
Z: Piano Box Version by Martin Fleischmann
H: Created 2013-02-19 /  Last Modified 2016-09-12
M: 4/4
L: 1/8
R: reel
K: Dmix
!5!d|:"dm"!4!c!3!A!2!GA !1!~=F3!5!d|!4!c!3!A!2!G!4!c !3!A!5!d!5!d!4!B|!5!c!3!A!2!G!1!E !1! =F2!3!de|"am"!5!=f!3!d!4!e!2!c "dm"!1!A!3!d~d2:|
|:"dm"!1!A2!3!dd c!1!A!2!G!1!E|"am"!1!=F!2!G!3!A!4!c cA!2!G!4!c|"dm"!1!A2!3!dd !2!c!1!A!1!G!1!A|1 "am"!2!c!3!d!4!e!5!g gedc:||2 "am"!2!c!3!d!4!e!5!g !3!f!1!d!2!d!1!d:||
| "D"!1!d2!3!^fd !5!ad!3!fd| "C"!1!cc !2!ec !4!gc!2!ec|"D"!1!d2fd adfd| "am"!2!c!1!A!1!G!2!c "D"Add!2!^c|
| "D"!1!d2fd adfd| "C"!1!c3!1!c !1!c!2!d!3!e!4!g|!5!a3g !2!e2ed|!4!c!2!A!1!G!4!c "D"!2!A!5!dd2||
!3!A|"Var Takt 2"!4!c3!4!c !3!A!5!d!5!d!4!B|


